X:147
T:AIR XXIV. Be Valiant still.
O:england
B:Joseph Mitchell: "The Highland Fair" (1731)
T:To Daunton Me
M:C|
L:1/8
K:DMin
FG |A2D2 D2 GF | E2 (DC) C2FG    | A3   d  (cA)(GE)| A2  D2  D2||
(cB)|A2c2 d2(ed)|(cd)(cA) G3 c    | A2  c2   d2  e2 |(ge)(dc) A2
(cd)|e2g2 d2 e2 |(cd)(cA) G3(c/d/)|(ed)(cA) (cA)(GE)| A2  D2  D2|]
